logos/dannce.svg

<svg xmlns="http://www.w3.org/2000/svg" width="917" height="280" style="shape-rendering:geometricPrecision;text-rendering:geometricPrecision;image-rendering:optimizeQuality;fill-rule:evenodd;clip-rule:evenodd"><path style="opacity:.863" fill="#358cc6" d="M722.5-.5h8c2.855 3.092 3.688 6.759 2.5 11a58.645 58.645 0 0 1-8 6 17282.082 17282.082 0 0 0-33.5 99c-.667 0-1 .333-1 1a51.569 51.569 0 0 0-7-1c-.8-30.738-2.467-61.405-5-92-6.582-4.886-6.582-9.72 0-14.5 4.431-1.112 8.098.054 11 3.5a559.41 559.41 0 0 1 29-6c.071-3.152 1.405-5.486 4-7zm-11 12a4.932 4.932 0 0 1 3 .5 15.653 15.653 0 0 0-4 2.5 28.854 28.854 0 0 0-4-1.5c1.882-.198 3.548-.698 5-1.5zm9 1c.597.235.93.735 1 1.5A7323.68 7323.68 0 0 0 695 90.5a1130.713 1130.713 0 0 1 10.5-60c1.467-1.998 3.3-3.665 5.5-5 .939-2.62 1.772-5.288 2.5-8 2.654-1.336 4.987-3.003 7-5zm-23 2c2.146.196 2.312 1.196.5 3a20.438 20.438 0 0 0-5.5-1.5c1.882-.198 3.548-.698 5-1.5zm-9 5a99.987 99.987 0 0 0 8 1.5 103.912 103.912 0 0 0 5 8.5 4551.3 4551.3 0 0 0-13.5 72 3916.248 3916.248 0 0 1-4.5-76c1.66-1.994 3.327-3.994 5-6z"/><path style="opacity:.945" d="M-.5 204.5v-32c2.633-17.099 9.966-31.932 22-44.5 22.44-16.223 45.107-16.557 68-1 3.592 2.921 6.425 6.421 8.5 10.5.5-23.998.667-47.998.5-72h24v192h-24c.166-6.009 0-12.009-.5-18-6.25 9.904-15.083 16.404-26.5 19.5-31.315 6.093-53.482-5.407-66.5-34.5a226.023 226.023 0 0 1-5.5-20zm57-69c18.135-.683 30.635 7.317 37.5 24 6 19.333 6 38.667 0 58-7.838 18.339-21.671 25.839-41.5 22.5-11.245-2.911-19.078-9.744-23.5-20.5-6.939-19.871-7.272-39.871-1-60 5.162-13.341 14.662-21.341 28.5-24z"/><path style="opacity:.877" fill="#7e2e8e" d="M693.5 120.5a308.607 308.607 0 0 1-3-4c.667 0 1-.333 1-1a269.576 269.576 0 0 0 20.5-17c-.22-8.119 3.614-11.619 11.5-10.5 3.234 2.686 4.9 6.186 5 10.5a423.951 423.951 0 0 1 15.5 12c3.135-1.299 6.301-1.299 9.5 0a685.347 685.347 0 0 0 26-17.5c-.217-8.453 3.783-11.786 12-10 4.813 4.041 5.146 8.375 1 13-3.291 2.075-6.457 1.908-9.5-.5a351.953 351.953 0 0 1-25.5 17.5c-.331 5.007-2.665 8.674-7 11-6.902.092-10.069-3.408-9.5-10.5a291.055 291.055 0 0 0-16.5-12c-2.866 1.295-5.699 1.295-8.5 0a637.513 637.513 0 0 0-22.5 19z"/><path style="opacity:.889" fill="#73ac41" d="M693.5 124.5v-4c8.038-.193 16.038-.86 24-2 2.544-5.348 6.544-6.848 12-4.5 2.371 2.674 3.537 5.841 3.5 9.5a95.775 95.775 0 0 0 17.5 11c2.512-1.256 5.012-1.256 7.5 0 4.989-4.32 9.989-8.653 15-13-1.423-7.663 1.744-11.497 9.5-11.5 6.658 3.934 7.324 8.6 2 14a28.931 28.931 0 0 0-4 1.5c-1.598-.985-3.265-1.151-5-.5a376.1 376.1 0 0 1-13.5 12.5c.059 11.3-4.608 13.967-14 8-1.582-2.124-1.749-4.29-.5-6.5a170.369 170.369 0 0 1-17.5-12.5c-4.435 2.799-8.269 2.133-11.5-2l-6.5-1c-6.153.638-12.319.971-18.5 1z"/><path style="opacity:.95" d="M215.5 115.5c33.901-1.163 53.734 14.837 59.5 48 .5 31.332.667 62.665.5 94h-23c.166-6.342 0-12.675-.5-19-14.303 18.552-33.136 25.719-56.5 21.5-23.887-4.585-35.887-19.085-36-43.5-.647-20.226 8.353-34.059 27-41.5a104.915 104.915 0 0 1 17-4 483.738 483.738 0 0 1 49-1.5c.231-16.269-7.436-26.769-23-31.5-21.008-4.064-40.842-.898-59.5 9.5-.813-7.58-.647-15.08.5-22.5 14.674-5.433 29.674-8.6 45-9.5zm0 73h37c1.335 18.178-4.665 33.345-18 45.5-9.816 6.11-20.483 8.11-32 6-17.67-6.296-23.504-18.463-17.5-36.5 3.83-6.81 9.663-10.977 17.5-12.5 4.488-.76 8.822-1.594 13-2.5z"/><path style="opacity:.94" d="M386.5 115.5c32.093 1.595 48.593 18.595 49.5 51 .5 30.332.667 60.665.5 91h-24a1706.87 1706.87 0 0 0-1.5-99c-3.597-14.891-13.097-22.224-28.5-22-18.785.799-30.951 10.133-36.5 28a1498.331 1498.331 0 0 0-1.5 93h-24v-138h24c-.166 6.009.001 12.009.5 18 10.458-13.811 24.291-21.144 41.5-22zM545.5 115.5c32.093 1.595 48.593 18.595 49.5 51 .5 30.332.667 60.665.5 91h-24a1706.87 1706.87 0 0 0-1.5-99c-3.597-14.891-13.097-22.224-28.5-22-18.785.799-30.951 10.133-36.5 28a1498.331 1498.331 0 0 0-1.5 93h-24v-138h24c-.166 6.009.001 12.009.5 18 10.458-13.811 24.291-21.144 41.5-22z"/><path style="opacity:.944" d="M916.5 167.5v27h-103c4.503 35.125 24.503 50.291 60 45.5a147.367 147.367 0 0 0 38-11.5 121.862 121.862 0 0 1-1 22c-24.958 10.597-50.625 12.764-77 6.5-25.265-9.007-39.765-26.841-43.5-53.5-3.492-22.738.841-43.738 13-63 13.879-16.52 31.713-24.853 53.5-25 33.806 1.549 53.806 18.883 60 52zm-70-31c28.866-2.75 44.533 10.25 47 39h-79c1.981-20.371 12.647-33.371 32-39z"/><path style="opacity:.9" fill="#d85527" d="M683.5 115.5c2.361.174 4.694.507 7 1a308.607 308.607 0 0 0 3 4v4a10.134 10.134 0 0 1-1.5 4c-2.287.974-4.287 2.307-6 4a5378.631 5378.631 0 0 1-12.5 49.5c3.562 3.671 4.396 7.838 2.5 12.5-3.453 3.269-7.286 3.769-11.5 1.5-2.708-3.111-3.542-6.611-2.5-10.5l-3-3-15.5 31c1.63 2.776 2.297 5.776 2 9a6.547 6.547 0 0 0-3 3l-6 1h-1c-.473-1.406-1.473-2.073-3-2-3.473-6.055-1.973-10.721 4.5-14a998.324 998.324 0 0 1 4.5-39c-6.077-4.859-6.411-10.026-1-15.5 2.599-.769 5.099-.602 7.5.5a614.105 614.105 0 0 0 30-29c-.708-5.354 1.126-9.354 5.5-12zm-6 19a1106.07 1106.07 0 0 1-19.5 40l-6-6a25.238 25.238 0 0 1 0-10 871.855 871.855 0 0 0 25.5-24zm0 12-8 36c-1.322-.17-2.489.163-3.5 1a39.447 39.447 0 0 0-4.5-6 675.385 675.385 0 0 1 16-31zm-32 24c4.351 1.509 7.685 4.342 10 8.5a1048.536 1048.536 0 0 1-13.5 27.5 842.444 842.444 0 0 1 3.5-36z"/><path style="opacity:.919" fill="#edb01d" d="M698.5 231.5c-4.151 1.24-7.817 3.24-11 6-1 .333-1.667 1-2 2-.992-.172-1.658.162-2 1h-1c-.667 0-1 .333-1 1-3.857.19-5.524 2.19-5 6-2.247 4.799-5.914 6.133-11 4a308.607 308.607 0 0 0-3-4 18.453 18.453 0 0 0-.5-6 576.016 576.016 0 0 1-18.5-15c0-.667-.333-1-1-1a6.547 6.547 0 0 1 3-3 772.608 772.608 0 0 1 19.5 16c3.565-1.553 6.899-1.22 10 1 8.42-4.794 16.92-9.46 25.5-14 1.195-8.759 5.862-11.592 14-8.5 3.555 3.69 3.889 7.69 1 12 4.62 8.07 9.12 16.237 13.5 24.5 9.691 1.362 12.191 6.195 7.5 14.5-10.68 2.821-14.347-1.013-11-11.5a456.087 456.087 0 0 0-14-25c-2.757-.529-5.257-1.529-7.5-3a44.433 44.433 0 0 1-5.5 3zm-11 6c0 1.333-.667 2-2 2 .333-1 1-1.667 2-2z"/><path style="opacity:.718" fill="#8f8da6" d="M632.5 224.5c1.527-.073 2.527.594 3 2-1.527.073-2.527-.594-3-2z"/><path style="opacity:.938" fill="#4dbdec" d="M642.5 225.5c.667 0 1 .333 1 1 2.487 6.312 4.987 12.645 7.5 19 3.032.592 5.698 1.926 8 4a19.602 19.602 0 0 0 3.5-2 308.607 308.607 0 0 1 3 4c-4.191-.118-6.357 1.882-6.5 6-3.168 4.033-7.001 4.867-11.5 2.5-3.946-4.128-3.946-8.295 0-12.5a237.226 237.226 0 0 1-8-19 44.093 44.093 0 0 1-3-2l6-1z"/><path style="opacity:.915" fill="#4dbeec" d="M698.5 231.5c6.422 7.536 4.922 12.869-4.5 16a192.89 192.89 0 0 1-6.5 18c4.242 5.156 3.909 9.823-1 14h-8c-5.233-7.421-3.566-12.754 5-16l7-18c-.387-1.22-1.22-1.887-2.5-2a158.96 158.96 0 0 1-11.5 4c-.524-3.81 1.143-5.81 5-6 .667 0 1-.333 1-1h1c.992.172 1.658-.162 2-1 1.333 0 2-.667 2-2 3.183-2.76 6.849-4.76 11-6z"/></svg>

<?xml version="1.0" encoding="UTF-8"?>
<!DOCTYPE svg PUBLIC "-//W3C//DTD SVG 1.1//EN" "http://www.w3.org/Graphics/SVG/1.1/DTD/svg11.dtd">
<svg xmlns="http://www.w3.org/2000/svg" version="1.1" width="917px" height="280px" style="shape-rendering:geometricPrecision; text-rendering:geometricPrecision; image-rendering:optimizeQuality; fill-rule:evenodd; clip-rule:evenodd" xmlns:xlink="http://www.w3.org/1999/xlink">
<g><path style="opacity:0.863" fill="#358cc6" d="M 722.5,-0.5 C 725.167,-0.5 727.833,-0.5 730.5,-0.5C 733.355,2.59189 734.188,6.25856 733,10.5C 730.464,12.758 727.797,14.758 725,16.5C 713.723,49.4979 702.556,82.4979 691.5,115.5C 690.833,115.5 690.5,115.833 690.5,116.5C 688.194,116.007 685.861,115.674 683.5,115.5C 682.7,84.7617 681.033,54.095 678.5,23.5C 671.918,18.614 671.918,13.7807 678.5,9C 682.931,7.88771 686.598,9.05437 689.5,12.5C 699.127,10.2413 708.794,8.24131 718.5,6.5C 718.571,3.34772 719.905,1.01439 722.5,-0.5 Z M 711.5,11.5 C 712.552,11.3505 713.552,11.5172 714.5,12C 713.034,12.6355 711.7,13.4688 710.5,14.5C 709.205,13.9017 707.872,13.4017 706.5,13C 708.382,12.8019 710.048,12.3019 711.5,11.5 Z M 720.5,12.5 C 721.097,12.7352 721.43,13.2352 721.5,14C 712.527,39.447 703.694,64.947 695,90.5C 697.951,70.464 701.451,50.464 705.5,30.5C 706.967,28.5022 708.8,26.8355 711,25.5C 711.939,22.8791 712.772,20.2125 713.5,17.5C 716.154,16.164 718.487,14.4974 720.5,12.5 Z M 697.5,14.5 C 699.646,14.6964 699.812,15.6964 698,17.5C 696.266,16.7511 694.433,16.2511 692.5,16C 694.382,15.8019 696.048,15.3019 697.5,14.5 Z M 688.5,19.5 C 691.127,20.1049 693.793,20.6049 696.5,21C 698.056,23.9533 699.723,26.7866 701.5,29.5C 696.807,53.463 692.307,77.463 688,101.5C 686.254,76.1855 684.754,50.8521 683.5,25.5C 685.16,23.5056 686.827,21.5056 688.5,19.5 Z"/></g>
<g><path style="opacity:0.945" fill="#000000" d="M -0.5,204.5 C -0.5,193.833 -0.5,183.167 -0.5,172.5C 2.13255,155.401 9.46589,140.568 21.5,128C 43.9406,111.777 66.6072,111.443 89.5,127C 93.0916,129.921 95.9249,133.421 98,137.5C 98.5,113.502 98.6666,89.5023 98.5,65.5C 106.5,65.5 114.5,65.5 122.5,65.5C 122.5,129.5 122.5,193.5 122.5,257.5C 114.5,257.5 106.5,257.5 98.5,257.5C 98.6662,251.491 98.4995,245.491 98,239.5C 91.7503,249.404 82.9169,255.904 71.5,259C 40.1847,265.093 18.018,253.593 5,224.5C 2.82607,217.792 0.992739,211.125 -0.5,204.5 Z M 56.5,135.5 C 74.6346,134.817 87.1346,142.817 94,159.5C 100,178.833 100,198.167 94,217.5C 86.1621,235.839 72.3288,243.339 52.5,240C 41.2553,237.089 33.422,230.256 29,219.5C 22.0613,199.629 21.728,179.629 28,159.5C 33.1617,146.159 42.6617,138.159 56.5,135.5 Z"/></g>
<g><path style="opacity:0.877" fill="#7e2e8e" d="M 693.5,120.5 C 692.512,119.205 691.512,117.872 690.5,116.5C 691.167,116.5 691.5,116.167 691.5,115.5C 698.579,110.199 705.413,104.533 712,98.5C 711.78,90.3812 715.614,86.8812 723.5,88C 726.734,90.6858 728.4,94.1858 728.5,98.5C 733.757,102.379 738.924,106.379 744,110.5C 747.135,109.201 750.301,109.201 753.5,110.5C 762.303,104.863 770.97,99.0292 779.5,93C 779.283,84.5474 783.283,81.2141 791.5,83C 796.313,87.0414 796.646,91.3747 792.5,96C 789.209,98.0745 786.043,97.9078 783,95.5C 774.761,101.704 766.261,107.537 757.5,113C 757.169,118.007 754.835,121.674 750.5,124C 743.598,124.092 740.431,120.592 741,113.5C 735.64,109.307 730.14,105.307 724.5,101.5C 721.634,102.795 718.801,102.795 716,101.5C 708.309,107.698 700.809,114.031 693.5,120.5 Z"/></g>
<g><path style="opacity:0.889" fill="#73ac41" d="M 693.5,124.5 C 693.5,123.167 693.5,121.833 693.5,120.5C 701.538,120.307 709.538,119.64 717.5,118.5C 720.044,113.152 724.044,111.652 729.5,114C 731.871,116.674 733.037,119.841 733,123.5C 738.45,127.807 744.284,131.473 750.5,134.5C 753.012,133.244 755.512,133.244 758,134.5C 762.989,130.18 767.989,125.847 773,121.5C 771.577,113.837 774.744,110.003 782.5,110C 789.158,113.934 789.824,118.6 784.5,124C 783.128,124.402 781.795,124.902 780.5,125.5C 778.902,124.515 777.235,124.349 775.5,125C 771.095,129.283 766.595,133.45 762,137.5C 762.059,148.8 757.392,151.467 748,145.5C 746.418,143.376 746.251,141.21 747.5,139C 741.403,135.201 735.569,131.035 730,126.5C 725.565,129.299 721.731,128.633 718.5,124.5C 716.333,124.167 714.167,123.833 712,123.5C 705.847,124.138 699.681,124.471 693.5,124.5 Z"/></g>
<g><path style="opacity:0.95" fill="#000000" d="M 215.5,115.5 C 249.401,114.337 269.234,130.337 275,163.5C 275.5,194.832 275.667,226.165 275.5,257.5C 267.833,257.5 260.167,257.5 252.5,257.5C 252.666,251.158 252.5,244.825 252,238.5C 237.697,257.052 218.864,264.219 195.5,260C 171.613,255.415 159.613,240.915 159.5,216.5C 158.853,196.274 167.853,182.441 186.5,175C 192.056,173.194 197.722,171.861 203.5,171C 219.803,169.672 236.136,169.172 252.5,169.5C 252.731,153.231 245.064,142.731 229.5,138C 208.492,133.936 188.658,137.102 170,147.5C 169.187,139.92 169.353,132.42 170.5,125C 185.174,119.567 200.174,116.4 215.5,115.5 Z M 215.5,188.5 C 227.833,188.5 240.167,188.5 252.5,188.5C 253.835,206.678 247.835,221.845 234.5,234C 224.684,240.11 214.017,242.11 202.5,240C 184.83,233.704 178.996,221.537 185,203.5C 188.83,196.69 194.663,192.523 202.5,191C 206.988,190.24 211.322,189.406 215.5,188.5 Z"/></g>
<g><path style="opacity:0.94" fill="#000000" d="M 386.5,115.5 C 418.593,117.095 435.093,134.095 436,166.5C 436.5,196.832 436.667,227.165 436.5,257.5C 428.5,257.5 420.5,257.5 412.5,257.5C 412.957,224.464 412.457,191.464 411,158.5C 407.403,143.609 397.903,136.276 382.5,136.5C 363.715,137.299 351.549,146.633 346,164.5C 344.538,195.458 344.038,226.458 344.5,257.5C 336.5,257.5 328.5,257.5 320.5,257.5C 320.5,211.5 320.5,165.5 320.5,119.5C 328.5,119.5 336.5,119.5 344.5,119.5C 344.334,125.509 344.501,131.509 345,137.5C 355.458,123.689 369.291,116.356 386.5,115.5 Z"/></g>
<g><path style="opacity:0.94" fill="#000000" d="M 545.5,115.5 C 577.593,117.095 594.093,134.095 595,166.5C 595.5,196.832 595.667,227.165 595.5,257.5C 587.5,257.5 579.5,257.5 571.5,257.5C 571.957,224.464 571.457,191.464 570,158.5C 566.403,143.609 556.903,136.276 541.5,136.5C 522.715,137.299 510.549,146.633 505,164.5C 503.538,195.458 503.038,226.458 503.5,257.5C 495.5,257.5 487.5,257.5 479.5,257.5C 479.5,211.5 479.5,165.5 479.5,119.5C 487.5,119.5 495.5,119.5 503.5,119.5C 503.334,125.509 503.501,131.509 504,137.5C 514.458,123.689 528.291,116.356 545.5,115.5 Z"/></g>
<g><path style="opacity:0.944" fill="#000000" d="M 916.5,167.5 C 916.5,176.5 916.5,185.5 916.5,194.5C 882.167,194.5 847.833,194.5 813.5,194.5C 818.003,229.625 838.003,244.791 873.5,240C 886.719,237.871 899.385,234.037 911.5,228.5C 911.831,235.863 911.497,243.197 910.5,250.5C 885.542,261.097 859.875,263.264 833.5,257C 808.235,247.993 793.735,230.159 790,203.5C 786.508,180.762 790.841,159.762 803,140.5C 816.879,123.98 834.713,115.647 856.5,115.5C 890.306,117.049 910.306,134.383 916.5,167.5 Z M 846.5,136.5 C 875.366,133.75 891.033,146.75 893.5,175.5C 867.167,175.5 840.833,175.5 814.5,175.5C 816.481,155.129 827.147,142.129 846.5,136.5 Z"/></g>
<g><path style="opacity:0.9" fill="#d85527" d="M 683.5,115.5 C 685.861,115.674 688.194,116.007 690.5,116.5C 691.512,117.872 692.512,119.205 693.5,120.5C 693.5,121.833 693.5,123.167 693.5,124.5C 693.291,125.922 692.791,127.255 692,128.5C 689.713,129.474 687.713,130.807 686,132.5C 681.911,149.021 677.745,165.521 673.5,182C 677.062,185.671 677.896,189.838 676,194.5C 672.547,197.769 668.714,198.269 664.5,196C 661.792,192.889 660.958,189.389 662,185.5C 661,184.5 660,183.5 659,182.5C 653.833,192.833 648.667,203.167 643.5,213.5C 645.13,216.276 645.797,219.276 645.5,222.5C 644.167,223.167 643.167,224.167 642.5,225.5C 640.5,225.833 638.5,226.167 636.5,226.5C 636.167,226.5 635.833,226.5 635.5,226.5C 635.027,225.094 634.027,224.427 632.5,224.5C 629.027,218.445 630.527,213.779 637,210.5C 638.245,197.465 639.745,184.465 641.5,171.5C 635.423,166.641 635.089,161.474 640.5,156C 643.099,155.231 645.599,155.398 648,156.5C 658.304,147.197 668.304,137.53 678,127.5C 677.292,122.146 679.126,118.146 683.5,115.5 Z M 677.5,134.5 C 671.283,147.934 664.783,161.267 658,174.5C 656,172.5 654,170.5 652,168.5C 651.333,165.167 651.333,161.833 652,158.5C 660.671,150.661 669.171,142.661 677.5,134.5 Z M 677.5,146.5 C 674.833,158.5 672.167,170.5 669.5,182.5C 668.178,182.33 667.011,182.663 666,183.5C 664.692,181.359 663.192,179.359 661.5,177.5C 666.608,166.949 671.941,156.615 677.5,146.5 Z M 645.5,170.5 C 649.851,172.009 653.185,174.842 655.5,179C 651.136,188.228 646.636,197.395 642,206.5C 642.904,194.525 644.071,182.525 645.5,170.5 Z"/></g>
<g><path style="opacity:0.919" fill="#edb01d" d="M 698.5,231.5 C 694.349,232.74 690.683,234.74 687.5,237.5C 686.5,237.833 685.833,238.5 685.5,239.5C 684.508,239.328 683.842,239.662 683.5,240.5C 683.167,240.5 682.833,240.5 682.5,240.5C 681.833,240.5 681.5,240.833 681.5,241.5C 677.643,241.69 675.976,243.69 676.5,247.5C 674.253,252.299 670.586,253.633 665.5,251.5C 664.488,250.128 663.488,248.795 662.5,247.5C 662.662,245.473 662.495,243.473 662,241.5C 655.711,236.612 649.544,231.612 643.5,226.5C 643.5,225.833 643.167,225.5 642.5,225.5C 643.167,224.167 644.167,223.167 645.5,222.5C 652.061,227.706 658.561,233.039 665,238.5C 668.565,236.947 671.899,237.28 675,239.5C 683.42,234.706 691.92,230.04 700.5,225.5C 701.695,216.741 706.362,213.908 714.5,217C 718.055,220.69 718.389,224.69 715.5,229C 720.12,237.07 724.62,245.237 729,253.5C 738.691,254.862 741.191,259.695 736.5,268C 725.82,270.821 722.153,266.987 725.5,256.5C 721.087,248.005 716.42,239.672 711.5,231.5C 708.743,230.971 706.243,229.971 704,228.5C 702.22,229.639 700.386,230.639 698.5,231.5 Z M 687.5,237.5 C 687.5,238.833 686.833,239.5 685.5,239.5C 685.833,238.5 686.5,237.833 687.5,237.5 Z"/></g>
<g><path style="opacity:0.718" fill="#8f8da6" d="M 632.5,224.5 C 634.027,224.427 635.027,225.094 635.5,226.5C 633.973,226.573 632.973,225.906 632.5,224.5 Z"/></g>
<g><path style="opacity:0.938" fill="#4dbdec" d="M 642.5,225.5 C 643.167,225.5 643.5,225.833 643.5,226.5C 645.987,232.812 648.487,239.145 651,245.5C 654.032,246.092 656.698,247.426 659,249.5C 660.302,248.915 661.469,248.249 662.5,247.5C 663.488,248.795 664.488,250.128 665.5,251.5C 661.309,251.382 659.143,253.382 659,257.5C 655.832,261.533 651.999,262.367 647.5,260C 643.554,255.872 643.554,251.705 647.5,247.5C 644.558,241.282 641.891,234.949 639.5,228.5C 638.398,227.824 637.398,227.158 636.5,226.5C 638.5,226.167 640.5,225.833 642.5,225.5 Z"/></g>
<g><path style="opacity:0.915" fill="#4dbeec" d="M 698.5,231.5 C 704.922,239.036 703.422,244.369 694,247.5C 692.129,253.614 689.962,259.614 687.5,265.5C 691.742,270.656 691.409,275.323 686.5,279.5C 683.833,279.5 681.167,279.5 678.5,279.5C 673.267,272.079 674.934,266.746 683.5,263.5C 685.833,257.5 688.167,251.5 690.5,245.5C 690.113,244.28 689.28,243.613 688,243.5C 684.199,244.987 680.365,246.32 676.5,247.5C 675.976,243.69 677.643,241.69 681.5,241.5C 682.167,241.5 682.5,241.167 682.5,240.5C 682.833,240.5 683.167,240.5 683.5,240.5C 684.492,240.672 685.158,240.338 685.5,239.5C 686.833,239.5 687.5,238.833 687.5,237.5C 690.683,234.74 694.349,232.74 698.5,231.5 Z"/></g>
</svg>
